X: 1152
T: CHERRY RIPE
B: Oliver Ditson "The Boston Collection of Instrumental Music" 1910 p.115 #2
F: http://conquest.imslp.info/files/imglnks/usimg/8/8f/IMSLP175643-PMLP309456-bostoncollection00bost_bw.pdf
%: 2012 John Chambers <jc:trillian.mit.edu>
M: 2/4
L: 1/16
K: D
A2 |\
FAA2 BAA2  | A3d/e/ d2c2 | d3c B3A | G>AF>A E3A |\
FAA2 BAA2  | d2fe d2c2 | d3d ed BG | FAGE D2 |]
A2 |\
A3A A3A | d3c B4 | E3F/^G/ A3A | ^GFcB A3A |\
e3c d3B | A3B/c/ E3E | A3^G FGAB | A2^G2"^da Capo"A2 ]
A2 |\
d3d c2BA | B3B A2z2 | G3A/G/ F2d2 | E2GF E2z2 |\
=c3c cBB2 | d3d d2c2 | d3d ec BG | FAGE "^da Capo"D2 |]
%%begintext align
Right hand across, left hand back.
Balance on a line and half promenade.
Forward two and back to back.
Forward four and back, right and left to place.
%%endtext

%%sep 1 1 500
%%sep 1 1 500
